dist/img/svg/roll_icon.svg

<svg version="1.2" baseProfile="tiny-ps" xmlns="http://www.w3.org/2000/svg" width="1178" height="1192"><style>.shp0{fill:#000}</style><g id="Capa 1"><path id="&lt;Compound Path&gt;" fill-rule="evenodd" class="shp0" d="M1174.27 853.46c5.02 10.35 5.02 22.22 0 32.57l-65.88 135.76c-.46.94-.46 2.03 0 2.97l54.86 113.04c5.65 11.64 4.92 25.13-1.94 36.09-6.86 10.96-18.68 17.5-31.61 17.5H125.18c-68.74 0-124.66-55.92-124.66-124.66 0-.94.04-1.86.06-2.79-.01-.94-.06-1.86-.06-2.8V131.08C.52 59.26 58.95.83 130.77.83h328.87c71.82 0 130.25 58.43 130.25 130.25v108.45h406.39c.02 0 .04.01.06.01h134.08c12.93 0 24.75 6.54 31.61 17.5 6.86 10.96 7.59 24.44 1.94 36.08l-55.57 114.53a3.39 3.39 0 000 2.98l65.88 135.78c5.02 10.34 5.02 22.21 0 32.56l-65.88 135.76a3.39 3.39 0 000 2.98l65.87 135.75zM34.4 981.42c22.76-24.2 55.02-39.35 90.78-39.35h314.64c52.84 0 98.07 33.06 116.19 79.58V131.08c0-53.14-43.23-96.36-96.37-96.36H130.77c-53.13 0-96.36 43.22-96.36 96.36v724.03c0 .02-.01.05-.01.08v126.23zm496.19 85.31c0-50.05-40.72-90.77-90.77-90.77H125.18c-49.12 0-89.22 39.21-90.7 87.97 1.48 51.85 44.09 93.57 96.29 93.57h309.05c50.05 0 90.77-40.72 90.77-90.77zm613.2-198.47l-65.88-135.76c-5.02-10.35-5.02-22.22 0-32.57l65.88-135.75c.46-.95.46-2.03 0-2.98l-65.88-135.78c-5.02-10.34-5.02-22.21 0-32.56l55.58-114.54c.68-1.4.28-2.57-.18-3.29-.46-.74-1.33-1.61-2.89-1.61H589.89v787.71c0 2.32-.06 4.62-.19 6.91-.04.76-.12 1.52-.17 2.28-.11 1.52-.21 3.03-.37 4.53-.09.91-.23 1.81-.34 2.71-.17 1.34-.33 2.68-.54 4-.15.96-.34 1.9-.51 2.85-.23 1.25-.46 2.51-.72 3.76-.2.97-.44 1.92-.67 2.88-.28 1.21-.56 2.41-.88 3.6-.26.97-.54 1.92-.82 2.88-.34 1.17-.68 2.33-1.05 3.48-.31.95-.64 1.9-.97 2.85-.39 1.13-.79 2.25-1.22 3.37-.35.94-.73 1.87-1.11 2.81-.44 1.09-.9 2.18-1.37 3.26-.41.92-.82 1.84-1.25 2.75a115.9 115.9 0 01-1.54 3.17c-.45.9-.9 1.79-1.37 2.67-.55 1.04-1.12 2.07-1.69 3.1-.49.86-.98 1.72-1.49 2.57-.61 1.02-1.23 2.02-1.87 3.03-.52.82-1.04 1.65-1.58 2.46-.67 1-1.36 1.98-2.05 2.96-.55.79-1.09 1.58-1.67 2.35-.73.99-1.48 1.95-2.24 2.92-.57.73-1.13 1.47-1.72 2.18-.81 1-1.66 1.97-2.51 2.94-.56.65-1.11 1.32-1.7 1.96-.95 1.06-1.95 2.09-2.94 3.12-.5.52-.98 1.05-1.49 1.56-1.49 1.49-3.01 2.95-4.56 4.36l-.1.1h582.51c1.57 0 2.44-.87 2.9-1.6.45-.73.85-1.89.17-3.3l-54.86-113.04c-5.02-10.35-5.02-22.22 0-32.57l65.88-135.75c.46-.95.46-2.03 0-2.98z"/><g id="&lt;Group&gt;"><g id="&lt;Group&gt;"><path id="&lt;Path&gt;" class="shp0" d="M488.16 1024.46c-12.22-13.95-29.84-21.96-48.34-21.96H125.18c-17.6 0-34.03 6.99-46.26 19.7-12.23 12.7-18.59 29.38-17.93 46.99 1.31 34.64 30.02 61.77 65.35 61.77h313.48c9.35 0 16.94-7.59 16.94-16.95s-7.58-16.94-16.94-16.94H126.34c-16.75 0-30.88-13.08-31.48-29.16-.32-8.32 2.69-16.21 8.47-22.21 5.79-6.01 13.55-9.32 21.85-9.32h314.64c8.73 0 17.05 3.79 22.84 10.4.26.3.66.75.2 1.76-.56 1.24-1.5 1.24-1.86 1.24H315.35c-9.36 0-16.95 7.59-16.95 16.95 0 9.35 7.59 16.94 16.95 16.94H461c14.27 0 26.81-8.09 32.72-21.12 5.85-12.89 3.71-27.49-5.56-38.09z"/></g></g></g></svg>

<svg version="1.2" baseProfile="tiny-ps" xmlns="http://www.w3.org/2000/svg" viewBox="0 0 1178 1192" width="1178" height="1192">
	<title>Capa 1</title>
	<style>
		tspan { white-space:pre }
		.shp0 { fill: #000000 } 
	</style>
	<g id="Capa 1">
		<path id="&lt;Compound Path&gt;" fill-rule="evenodd" class="shp0" d="M1174.27 853.46C1179.29 863.81 1179.29 875.68 1174.27 886.03L1108.39 1021.79C1107.93 1022.73 1107.93 1023.82 1108.39 1024.76L1163.25 1137.8C1168.9 1149.44 1168.17 1162.93 1161.31 1173.89C1154.45 1184.85 1142.63 1191.39 1129.7 1191.39L125.18 1191.39C56.44 1191.39 0.52 1135.47 0.52 1066.73C0.52 1065.79 0.56 1064.87 0.58 1063.94C0.57 1063 0.52 1062.08 0.52 1061.14L0.52 836.72C0.52 836.69 0.52 836.67 0.52 836.64L0.52 131.08C0.52 59.26 58.95 0.83 130.77 0.83L459.64 0.83C531.46 0.83 589.89 59.26 589.89 131.08L589.89 239.53L996.28 239.53C996.3 239.53 996.32 239.54 996.34 239.54L1130.42 239.54C1143.35 239.54 1155.17 246.08 1162.03 257.04C1168.89 268 1169.62 281.48 1163.97 293.12L1108.4 407.65C1107.94 408.6 1107.94 409.69 1108.4 410.63L1174.28 546.41C1179.3 556.75 1179.3 568.62 1174.28 578.97L1108.4 714.73C1107.94 715.68 1107.94 716.76 1108.4 717.71L1174.27 853.46ZM34.4 981.42C57.16 957.22 89.42 942.07 125.18 942.07L439.82 942.07C492.66 942.07 537.89 975.13 556.01 1021.65L556.01 131.08C556.01 77.94 512.78 34.72 459.64 34.72L130.77 34.72C77.64 34.72 34.41 77.94 34.41 131.08L34.41 855.11C34.41 855.13 34.4 855.16 34.4 855.19L34.4 981.42ZM530.59 1066.73C530.59 1016.68 489.87 975.96 439.82 975.96L125.18 975.96C76.06 975.96 35.96 1015.17 34.48 1063.93C35.96 1115.78 78.57 1157.5 130.77 1157.5L439.82 1157.5C489.87 1157.5 530.59 1116.78 530.59 1066.73ZM1143.79 868.26L1077.91 732.5C1072.89 722.15 1072.89 710.28 1077.91 699.93L1143.79 564.18C1144.25 563.23 1144.25 562.15 1143.79 561.2L1077.91 425.42C1072.89 415.08 1072.89 403.21 1077.91 392.86L1133.49 278.32C1134.17 276.92 1133.77 275.75 1133.31 275.03C1132.85 274.29 1131.98 273.42 1130.42 273.42L964.46 273.42C964.44 273.42 964.43 273.42 964.42 273.42L589.89 273.42L589.89 1061.13C589.89 1063.45 589.83 1065.75 589.7 1068.04C589.66 1068.8 589.58 1069.56 589.53 1070.32C589.42 1071.84 589.32 1073.35 589.16 1074.85C589.07 1075.76 588.93 1076.66 588.82 1077.56C588.65 1078.9 588.49 1080.24 588.28 1081.56C588.13 1082.52 587.94 1083.46 587.77 1084.41C587.54 1085.66 587.31 1086.92 587.05 1088.17C586.85 1089.14 586.61 1090.09 586.38 1091.05C586.1 1092.26 585.82 1093.46 585.5 1094.65C585.24 1095.62 584.96 1096.57 584.68 1097.53C584.34 1098.7 584 1099.86 583.63 1101.01C583.32 1101.96 582.99 1102.91 582.66 1103.86C582.27 1104.99 581.87 1106.11 581.44 1107.23C581.09 1108.17 580.71 1109.1 580.33 1110.04C579.89 1111.13 579.43 1112.22 578.96 1113.3C578.55 1114.22 578.14 1115.14 577.71 1116.05C577.21 1117.12 576.7 1118.17 576.17 1119.22C575.72 1120.12 575.27 1121.01 574.8 1121.89C574.25 1122.93 573.68 1123.96 573.11 1124.99C572.62 1125.85 572.13 1126.71 571.62 1127.56C571.01 1128.58 570.39 1129.58 569.75 1130.59C569.23 1131.41 568.71 1132.24 568.17 1133.05C567.5 1134.05 566.81 1135.03 566.12 1136.01C565.57 1136.8 565.03 1137.59 564.45 1138.36C563.72 1139.35 562.97 1140.31 562.21 1141.28C561.64 1142.01 561.08 1142.75 560.49 1143.46C559.68 1144.46 558.83 1145.43 557.98 1146.4C557.42 1147.05 556.87 1147.72 556.28 1148.36C555.33 1149.42 554.33 1150.45 553.34 1151.48C552.84 1152 552.36 1152.53 551.85 1153.04C550.36 1154.53 548.84 1155.99 547.29 1157.4C547.25 1157.44 547.22 1157.47 547.19 1157.5L1129.7 1157.5C1131.27 1157.5 1132.14 1156.63 1132.6 1155.9C1133.05 1155.17 1133.45 1154.01 1132.77 1152.6L1077.91 1039.56C1072.89 1029.21 1072.89 1017.34 1077.91 1006.99L1143.79 871.24C1144.25 870.29 1144.25 869.21 1143.79 868.26Z" />
		<g id="&lt;Group&gt;">
			<g id="&lt;Group&gt;">
				<path id="&lt;Path&gt;" class="shp0" d="M488.16 1024.46C475.94 1010.51 458.32 1002.5 439.82 1002.5L125.18 1002.5C107.58 1002.5 91.15 1009.49 78.92 1022.2C66.69 1034.9 60.33 1051.58 60.99 1069.19C62.3 1103.83 91.01 1130.96 126.34 1130.96L439.82 1130.96C449.17 1130.96 456.76 1123.37 456.76 1114.01C456.76 1104.65 449.18 1097.07 439.82 1097.07L126.34 1097.07C109.59 1097.07 95.46 1083.99 94.86 1067.91C94.54 1059.59 97.55 1051.7 103.33 1045.7C109.12 1039.69 116.88 1036.38 125.18 1036.38L439.82 1036.38C448.55 1036.38 456.87 1040.17 462.66 1046.78C462.92 1047.08 463.32 1047.53 462.86 1048.54C462.3 1049.78 461.36 1049.78 461 1049.78L315.35 1049.78C305.99 1049.78 298.4 1057.37 298.4 1066.73C298.4 1076.08 305.99 1083.67 315.35 1083.67L461 1083.67C475.27 1083.67 487.81 1075.58 493.72 1062.55C499.57 1049.66 497.43 1035.06 488.16 1024.46Z" />
			</g>
		</g>
	</g>
</svg>
